X: 4
T:The Hare in the Corn
M: 6/8
L: 1/8
R: Jig
K: D Major
|: A |\
FAA AFA | BdB AFD | FEE EDE | FDC D2 E |
FAA AFA | BdB AFA | Bcd efe | d3 d2 :|
|: g |\
f3 faf | g2 e ede | faf fef | a3 aba | 
f3 faf | g2 e edB | ABd efe | d3 d2 :|
